icons/job/caster/BLM.svg

<svg viewBox="0 0 12.7 12.7" xmlns="http://www.w3.org/2000/svg">
  <g>
    <path d="M 11.375463,1.3071461 C 11.076808,1.0071534 10.768258,1.0557721 8.9279613,2.3127811 8.0522627,2.8487042 6.1556104,4.6761412 7.1198848,2.3495149 7.2998207,1.9545524 7.3932857,1.3833838 6.6213735,1.5490818 5.8438503,1.7159845 3.8008268,3.4483857 2.6424596,5.3029909 2.5762201,5.353815 2.5146791,5.403505 2.4550508,5.4530905 A 3.4036407,3.4036407 0 0 0 1.8276765,6.0885004 c -0.026722,0.034613 -0.052009,0.068904 -0.076053,0.1030305 a 3.4036407,3.4036407 0 0 0 -0.040466,0.058835 c -0.027274,0.040904 -0.052831,0.081685 -0.076628,0.1219732 A 3.4036407,3.4036407 0 0 0 1.13573,8.1419574 3.4036407,3.4036407 0 0 0 4.5395037,11.545731 3.4036407,3.4036407 0 0 0 7.3839212,10.011163 C 8.8646232,9.0996838 11.1747,6.7931515 11.156198,5.8921949 11.08167,5.3058765 10.683102,5.4015516 10.360071,5.5391899 8.246999,6.4326474 9.4826625,5.0649485 10.396805,3.7374281 11.790861,1.7931499 11.671779,1.6047888 11.375461,1.3071445 Z M 10.447317,2.2639928 C 8.9134531,4.4224785 7.5680764,5.4637046 8.4291615,6.5247356 8.6256885,6.766892 9.1227313,6.688847 9.3877272,6.6228896 9.8909363,6.497642 9.9373369,6.5948032 9.4058074,7.1420637 8.2258234,8.3569581 7.9796017,8.6674667 7.9294994,8.4461748 A 3.4036407,3.4036407 0 0 0 7.9432756,8.141959 3.4036407,3.4036407 0 0 0 7.8723841,7.4614907 3.4036407,3.4036407 0 0 0 5.5247569,4.8848397 C 5.3705581,4.8327959 5.215261,4.7961194 5.0604018,4.778651 A 3.4036407,3.4036407 0 0 0 4.5395034,4.7381865 3.4036407,3.4036407 0 0 0 4.2677185,4.749952 C 4.039511,4.7014684 4.3146415,4.4585824 5.4920431,3.2897172 5.9476918,2.8373668 6.2126211,2.6355642 6.0789509,3.2458047 5.9057439,3.9147871 6.010817,4.1825103 6.1656227,4.308266 7.2135917,5.1595767 8.2758959,3.7241955 10.447317,2.2639928 Z M 5.9779277,6.5640542 a 2.1353026,2.1353026 0 0 1 0.696826,1.5779056 2.1353026,2.1353026 0 0 1 -2.135251,2.1352512 2.1353026,2.1353026 0 0 1 -2.1352509,-2.1352512 2.1353026,2.1353026 0 0 1 2.1352509,-2.1352516 2.1353026,2.1353026 0 0 1 1.438425,0.557346 z" />
  </g>
</svg>

<svg viewBox="0 0 12.7 12.7" xmlns="http://www.w3.org/2000/svg"><path d="M11.375 1.307c-.298-.3-.607-.251-2.447 1.006-.876.536-2.772 2.363-1.808.037.18-.395.273-.967-.499-.8-.777.166-2.82 1.898-3.979 3.753-.066.05-.127.1-.187.15a3.404 3.404 0 0 0-.627.636 2.93 2.93 0 0 0-.076.103 3.404 3.404 0 0 0-.04.058 1.878 1.878 0 0 0-.077.122 3.404 3.404 0 0 0-.5 1.77 3.404 3.404 0 0 0 3.405 3.404 3.404 3.404 0 0 0 2.844-1.535c1.48-.911 3.79-3.218 3.772-4.119-.074-.586-.473-.49-.796-.353-2.113.894-.877-.474.037-1.802 1.394-1.944 1.275-2.132.978-2.43Zm-.928.957c-1.534 2.158-2.879 3.2-2.018 4.26.197.243.694.165.959.099.503-.125.55-.028.018.52-1.18 1.214-1.426 1.524-1.477 1.303a3.404 3.404 0 0 0 .014-.304 3.404 3.404 0 0 0-.07-.68 3.404 3.404 0 0 0-2.348-2.577 2.24 2.24 0 0 0-.465-.106 3.404 3.404 0 0 0-.52-.04 3.404 3.404 0 0 0-.272.011c-.228-.049.047-.291 1.224-1.46.456-.453.72-.654.587-.044-.173.669-.068.937.087 1.062 1.048.852 2.11-.584 4.281-2.044Zm-4.47 4.3a2.135 2.135 0 0 1 .698 1.578 2.135 2.135 0 0 1-2.135 2.135 2.135 2.135 0 0 1-2.136-2.135A2.135 2.135 0 0 1 4.54 6.007a2.135 2.135 0 0 1 1.438.557z"/></svg>
